svg/fluentui-system-icons/ic_fluent_document_person_20_filled.svg

<svg width="20" height="20" viewBox="0 0 20 20" fill="none" xmlns="http://www.w3.org/2000/svg">
<path d="M10 2V6.5C10 7.32843 10.6716 8 11.5 8H16V16.5C16 17.3284 15.3284 18 14.5 18H8.63157C8.88124 17.5273 9 17.0118 9 16.5C9 15.1958 8.00132 14.1248 6.72697 14.0102C7.20744 13.4782 7.5 12.7733 7.5 12C7.5 10.3431 6.15685 9 4.5 9C4.32964 9 4.1626 9.0142 4 9.04148V3.5C4 2.67157 4.67157 2 5.5 2H10ZM11 2.25V6.5C11 6.77614 11.2239 7 11.5 7H15.75L11 2.25ZM6.5 12C6.5 13.1046 5.60457 14 4.5 14C3.39543 14 2.5 13.1046 2.5 12C2.5 10.8954 3.39543 10 4.5 10C5.60457 10 6.5 10.8954 6.5 12ZM8 16.5C8 17.7452 7 19 4.5 19C2 19 1 17.7499 1 16.5C1 15.6716 1.67157 15 2.5 15H6.5C7.32843 15 8 15.6716 8 16.5Z" fill="#212121"/>
</svg>

<svg xmlns="http://www.w3.org/2000/svg" width="20" height="20"><path d="M10 2v4.5A1.5 1.5 0 0 0 11.5 8H16v8.5a1.5 1.5 0 0 1-1.5 1.5H8.632c.25-.473.368-.988.368-1.5a2.5 2.5 0 0 0-2.273-2.49A3 3 0 0 0 4 9.041V3.5A1.5 1.5 0 0 1 5.5 2H10Zm1 .25V6.5a.5.5 0 0 0 .5.5h4.25L11 2.25ZM6.5 12a2 2 0 1 1-4 0 2 2 0 0 1 4 0ZM8 16.5C8 17.745 7 19 4.5 19S1 17.75 1 16.5A1.5 1.5 0 0 1 2.5 15h4A1.5 1.5 0 0 1 8 16.5Z"/></svg>
